svgs/light/circle-waveform-lines.svg

<svg xmlns="http://www.w3.org/2000/svg" viewBox="0 0 512 512"><!-- Font Awesome Pro 6.0.0-alpha2 by @fontawesome - https://fontawesome.com License - https://fontawesome.com/license (Commercial License) --><path d="M256 16C123.451 16 16 123.451 16 256S123.451 496 256 496S496 388.549 496 256S388.549 16 256 16ZM256 464C141.309 464 48 370.691 48 256S141.309 48 256 48S464 141.309 464 256S370.691 464 256 464ZM144 160C135.164 160 128 167.162 128 176V336C128 344.836 135.164 352 144 352S160 344.836 160 336V176C160 167.162 152.836 160 144 160ZM208 200C199.164 200 192 207.162 192 216V296C192 304.836 199.164 312 208 312S224 304.836 224 296V216C224 207.162 216.836 200 208 200ZM272 136C263.164 136 256 143.162 256 152V360C256 368.836 263.164 376 272 376S288 368.836 288 360V152C288 143.162 280.836 136 272 136ZM336 184C327.164 184 320 191.162 320 200V312C320 320.836 327.164 328 336 328S352 320.836 352 312V200C352 191.162 344.836 184 336 184ZM400 224C391.164 224 384 231.162 384 240V272C384 280.836 391.164 288 400 288S416 280.836 416 272V240C416 231.162 408.836 224 400 224Z"/></svg>

<svg xmlns="http://www.w3.org/2000/svg" viewBox="0 0 512 512"><!--! Font Awesome Pro 6.3.0 by @fontawesome - https://fontawesome.com License - https://fontawesome.com/license (Commercial License) Copyright 2023 Fonticons, Inc. --><path d="M272 136c-8.836 0-16 7.162-16 16v208c0 8.836 7.164 16 16 16s16-7.164 16-16v-208C288 143.2 280.8 136 272 136zM208 200C199.2 200 192 207.2 192 216v80c0 8.836 7.164 16 16 16S224 304.8 224 296v-80C224 207.2 216.8 200 208 200zM144 160C135.2 160 128 167.2 128 176v160C128 344.8 135.2 352 144 352S160 344.8 160 336v-160C160 167.2 152.8 160 144 160zM400 224C391.2 224 384 231.2 384 240v32C384 280.8 391.2 288 400 288S416 280.8 416 272v-32C416 231.2 408.8 224 400 224zM256 0C114.6 0 0 114.6 0 256s114.6 256 256 256s256-114.6 256-256S397.4 0 256 0zM256 480c-123.5 0-224-100.5-224-224s100.5-224 224-224s224 100.5 224 224S379.5 480 256 480zM336 184c-8.836 0-16 7.162-16 16v112c0 8.836 7.164 16 16 16s16-7.164 16-16v-112C352 191.2 344.8 184 336 184z"/></svg>
